X:1
T:Melchior Vulpius 1570 - 1615
T:Siehe, ich sende meinen Engel
%%score [ 1 2 3 4 ]
L:1/8
M:2/2
K:F
V:1 treble nm="Cantus"
V:2 treble nm="Altus"
V:3 treble-8 nm="Tenor"
V:4 bass nm="Bassus"
V:1
 G6 A2 x2 | B2 c2 d2 cB | A2 G2 A4 x2 | B4 G4 | A3 c A2 G2 | ^F4 F4 | G6 A2 | B2 c2 d6 | %8
w: Sie- *|||he: ich|sen- de mei- nen|En- gel,|sie- *||
 c2 B2 AG x2 |[M:2/2] ^F2 G4 !courtesy!^F2 | G4 G4 | A3 c A2 G2 | ^F4 F4 x2 | z8 x4 | A6 G F x4 | %15
w: ||he: ich|sen- de mei- nen|En- gel||vor * *|
 EA, D4 ^C2 x2 | D2 d4 c B x2 | AD G4 ^F2 | G4 z2 B2 | c2 c2 d2 d2 | cd_ec dcBA | G2 G2 d2 d2 | %22
w: * * * dir|her, vor * *|* * * dir|her, der|dei- nen Weg vor|dir * * * * * * *|* be- rei- ten|
 G4 z2 F2 | G2 G2 A2 A2 | BcdB cBAG x2 | F2 F2 E2 E2 | F2 F2 G2 G2 | A2 A2 BcdB | c2 c2 B2 B2 | %29
w: soll, der|dei- nen Weg vor|dir * * * * * * *|* be- rei- ten|soll, der dei- nen|Weg vor dir * * *|* be- rei- ten|
 A4 A4 x | A2 A2 A2 B2 x3 | cd_ec dcBA | G2 G2 d2 d2 |[M:2/2] G4 z2 F2 | B2 B2 A2 A2 x2 | B4 d4 | %36
w: soll, der|dei- nen Weg vor|dir * * * * * * *|* be- rei- ten|soll, vor|dir be- rei- ten|soll, der|
 c2 c2 A4 | z4 z2 d2 x2 | B2 B2 A2 A2 | B2 G2 F2 F2 | E2 E2 F2 F2 | G2 G2 A2 A2 | BAGB AGFE | %43
w: dei- nen Weg|vor|dir be- rei- ten|soll, vor dir be-|rei- ten soll, der|dei- nen Weg vor|dir * * * * * * *|
 D2 D2 A2 A2 | G4 z2 A2 | F2 F2 E2 E2 | ^F4 z2 A2 | BcdB cBAG | A2 F2 E2 E2 | ^F4 z2 A2 | %50
w: * be- rei- ten|soll, vor|dir be- rei- ten|soll, vor|dir * * * * * * *|* be- rei- ten|soll, vor|
 BAGB A2 A4 | d4 ^c2 x2 | d6 d2 | G2 B2 B2 A2 | B4 B4 | c2 c2 d2 d2 | _edc!courtesy!_e dcBA | %57
w: dir * * * * be-|rei- ten|soll, vor|dir be- rei- ten|soll, der|dei- nen Weg vor|dir * * * * * * *|
 G2 G2 F2 F2 | G4 z2 B2 | B2 G2 G2 ^F2 | G2 G2 G2 G2 | G"^(  )"F_ED !courtesy!_E2 E2 |"D" x8 |] %63
w: * be- rei- ten|soll, vor|dir be- rei- ten|soll, vor dir be-|rei- * * * * ten||
V:2
 z8 x2 | D6 E2 | ^F2 G4 !courtesy!^F2 x2 | G4 D4 |"^(  )" F3 G F2 D2 | D4 D4 | z8 | G,6 A,2 x2 | %8
w: |Sie- *||he: ich|sen- de mei- nen|En- gel,||sie- *|
 B,2 C2 D2 _E2 |[M:2/2] D2 C2 D4 | D4 D4 | F3 G F2 D2 | D4 D2 D4 | CB,A,G, A,B, C6 | %14
w: ||he: ich|sen- de mei- nen|En- gel vor||
 C2 C2 D2 E4 x2 | ^F4 F6 | G2 A2 D2 D2 x2 | D2 D4 z2 | G2 F2 F2 EF | G"^(  )"E F2 F2 EF | %20
w: dir her, vor dir|her, vor|dir her, der dir|den Weg|vor dir be- rei- *|* * * ten soll *|
 GE F2 F2 x2 | EFGE FEDC | D2 D2 D2 D2 | D2 G2 F2 E2 | D4 z2 C4 | F4 E2 x2 | F2 F2 D2 G2 | %27
w: * * * vor|dir * * * * * * *|* be- rei- ten|soll, der dei- nen|Weg vor|dir be-|rei- ten soll, der|
 E2 F2 D4 | z2 C2 DEFD | E2 E2 F2 F2 x | EFG"^(  )"F F2 F2 x3 | E2 E2 F2 F2 |[M:2/2] EFGE FEDC | %33
w: dei- nen Weg|vor dir * * *|* be- rei- ten|soll, * * * * der|dei- nen Weg vor|dir * * * * * * *|
 D2 G2 ^F2 F2 | G2 G4 F4 | E2 D2 D2 _EF | G_E F2 D4 | G4 ^F2 G4 | z4 x4 | z2 C2 C2 C2 | %40
w: * be- rei- ten|soll, der dei~-|nen Weg vor dir *|* * * be-|rei- ten soll,||der dei- nen|
 C2 C2 C2 F2 | D2 D2 C4 | z2 G2 E2 F2 | D4 z2 C2 | D2 D2 ^C2 C2 | D2 A,2 A,2 A,2 | D4 z2 C2 | %47
w: Weg vor dir be-|rei- ten soll,|der dei- nen|Weg vor|dir be- rei- ten|soll, der dei- nen|Weg vor|
 F2 D2 ^C2 C2 | D2 D2"^(  )" F2 F2 | D4 z2 C2 | F2 F2 E2 E2 x2 | F6 D2 | E2 F2 F2 F2 |"F" x8- | %54
w: dir be- rei- ten|soll, der dei- nen|Weg vor|dir be- rei- ten|soll, vor|dir be- rei- ten|soll,|
 x6 x2 | z8 | z4 z2 D2 | CD_EC D2 D2 | D6 D2 | D2 _E2 E2 D2 | _EDCB, C2 C2 |"B" x8 | x8 |] %63
w: ||vor|dir * * * * be-|rei- ten|soll, vor dir be-|rei * * * * ten|||
V:3
 z4 G6 | A2 B2 c2 d2 | _e2 d4 G4 | =B4 c3 c | c2"^(  )" B2 A4 | A4 z4 | G6 A2 | B2 c2 d6 | cB x6 | %9
w: Sie-||* * he:|ich sen- de|mei- nen En-|gel,|sie- *|||
[M:2/2][K:treble-8] A2 G2 A4 | G4 =B4 | c3 c c2"^(  )" B2 | A4 A4 x2 | F6 ED x4 | E2 F2 E2 A4 x2 | %15
w: |he: ich|sen- de mei- nen|En- gel|vor * *|* dir her, vor|
 GF E2 E2 x4 | D4 d6 | cB A2 A2 G2 | G2 B2 B2 A2 | G2 A2 B2 c2 | c2 F4 z2 | c2 A2 B2 x2 | G4 z4 | %23
w: * * * dir|her, vor|* * * dir her,|der dei- nen Weg|vor dir be- rei-|ten soll,|der dei- nen|Weg,|
 z2 G3 ^F/E/ !courtesy!^F2 | G2 G2 A2 A2 x2 | BcdB cBAG | F2 F2 c2 c2 | c2 c2 B2 B2 | A2 A2 BcdB | %29
w: der * * *|dei- nen Weg vor|dir * * * * * * *|* be- rei- ten|soll, der dei- nen|Weg vor dir * * *|
 cBAG A2 d3 | ^c/=B/ c2 d2 d2 G4 | B4 c2 c2 | d2 B2 x4 |[M:2/2][K:treble-8] cd_ec dcBA | %34
w: * * * * * be-|* * * rei- ten soll,|der dei- nen|Weg vor|dir * * * * * * *|
 G2 G2 d2 d2 x2 | G4 B4 | A2 G3 ^F/E/ !courtesy!^F2 | G4 z2"^(  )" F2 x2 | GABG A2 A2 | d6 d2 | %40
w: * be- rei- ten|soll, der|dei- * * * nen|Weg vor|dir * * * * be-|rei- ten|
 G2 c2 A2 A2 | G2 G2 F2 F2 | G2 G2 A2 A2 | BcdB cBAG | B2 G2 A2 A2 | A4 z4 | z4 ^F4 | GABG AGFE | %48
w: soll, vor dir be-|rei- ten soll, der|dei- nen Weg vor|dir * * * * * * *|* be- rei- ten|soll,|vor|dir * * * * * * *|
 D2 D2 A2 A2 | D4 d4 | BcdB cBAG x2 | A2 A2 A2 A2 | A6 A2 | c2 d2 c2 c2 | d8 | z4 B4 | %56
w: * be- rei- ten|soll, vor|dir * * * * * * *|* be- rei- ten|soll, vor|dir be- rei- ten|soll,|der|
 c2 c2 d2 d2 | _edc!courtesy!_e dcBA | G2 G2 F2 F2 | G2 B2 A2 A2 |"G" x8- | x8 | x8 |] %63
w: dei- nen Weg vor|dir * * * * * * *|\_\_\_ be- rei- ten|soll, be- rei- ten|soll.|||
V:4
 z8 x2 | z8 | z8 x2 | z4 G,4 | F,3 E, F,2 G,2 | D,4 D,4 | z8 | z4 G,,6 | A,,2 B,,2 C,2 x2 | %9
w: |||Ich|sen- de mei- nen|En- gel,||sie-||
[M:2/2] D,2 _E,2 D,4 | G,,4 G,4 | F,3 E, F,2 G,2 | D,4 D,4 x2 | D,6 C,B,, x4 | A,,12 | A,,4 x6 | %16
w: |he: ich|sen- de mei- nen|En- gel|vor * *||dir|
"B" x8- x2 | x6 x2 | z4 G,4 | F,2 E,2 D,4 | z4 B,,4 | C,2 C,2 D,2 B,,2 | C,D,E,C, D,C,B,,A,, | %23
w: her,||der|dei- nen Weg,|der|dei- nen Weg vor|dir * * * * * * *|
 G,,2 G,,2 D,2 D,2 | G,,4 z4 x2 | z8 | z8 | F,4 G,2 G,2 | A,2 F,2 G,A,B,G, | A,G,F,E, D,2 D,2 x | %30
w: * be- rei- ten|soll,|||der dei- nen|Weg vor dir * * *|* * * * * be-|
 A,2 A,2 D,2 D,2 x3 | C,2 C,2 B,,4 | z8 |[M:2/2] z8 | z8 x2 | z4 B,,4 | C,2 C,2 D,2 D,2 | %37
w: rei- ten soll, der|dei- nen Weg,||||der|dei- nen Weg vor|
 C,D,_E,C, D,C,B,,A,, x2 | G,,2 G,,2 D,2 D,2 | G,,2 G,,2 B,,C,D,B,, | C,B,,A,,G,, F,,2 F,2 | %41
w: dir * * * * * * *|* be- rei- ten|soll, vor dir * * *|* * * * * be-|
 E,2 E,2 F,4 | z4 F,4 | G,2 G,2 A,2 F,2 | G,A,B,G, A,G,F,E, | D,2 D,2 A,,2 A,,2 | D,8 | z8 | z8 | %49
w: rei- ten soll,|der|dei- nen Weg vor|dir * * * * * * *|* be- rei- ten|soll,|||
 z4 D,4 | G,A,B,G, A,G,F,E, x2 | D,2 D,2 A,,2 A,,2 | D,6 D,2 | C,2 B,,2 F,2 F,2 | B,,8 | z8 | %56
w: vor|dir * * * * * * *|* be- rei- ten|soll, vor|dir be- rei- ten|soll,||
 z4 B,,4 | C,2 C,2 D,2 D,2 | _E,D,C,!courtesy!_E, D,C,B,,A,, | G,,2 G,,2 D,2 D,2 | %60
w: der|dei- nen Weg vor|dir * * * * * * *|* be- rei- ten|
 G,,2 C,2 C,2 =B,,2 | C,6 C,2 |"E" x8 |] %63
w: soll, vor dir be-|rei- ten||

